X: 25720
T: Mary Devlin's
R: reel
M: 4/4
K: Bdorian
e|:f~B3 fBAB|F~B3 AFDF|EB{d}BA ~B3d|B/B/B dB ABde|
f~B3 fBAB|F~B3 AFDF|EB{d}BA ~B3d|1 ABdA Bcde:|2 ABde fdfa||
|:.b2 .a2 f3f|edef d3c|d~B3 ABde|~f3a edfa|
bfab f3f|edef dBAB|d~B3 ABde|1 fB{d}BA B2 e/f/a:|2 fB{d}BA Bcde||

